images/offers/pencil-alt.svg

<svg width="35" height="35" viewBox="0 0 35 35" fill="none" xmlns="http://www.w3.org/2000/svg">
<g clip-path="url(#clip0_37_4)">
<path d="M34.0361 9.71386L30.8847 12.8652C30.5634 13.1865 30.0439 13.1865 29.7226 12.8652L22.1347 5.27734C21.8134 4.95605 21.8134 4.43652 22.1347 4.11523L25.2861 0.963866C26.5644 -0.314453 28.6425 -0.314453 29.9277 0.963866L34.0361 5.07226C35.3213 6.35058 35.3213 8.42871 34.0361 9.71386ZM19.4277 6.82226L1.47653 24.7734L0.0273109 33.0791C-0.170931 34.2002 0.806608 35.1709 1.9277 34.9795L10.2334 33.5234L28.1845 15.5723C28.5058 15.251 28.5058 14.7314 28.1845 14.4101L20.5966 6.82226C20.2685 6.50097 19.749 6.50097 19.4277 6.82226ZM8.48337 23.2353C8.10739 22.8594 8.10739 22.2578 8.48337 21.8818L19.0107 11.3545C19.3867 10.9785 19.9882 10.9785 20.3642 11.3545C20.7402 11.7305 20.7402 12.332 20.3642 12.708L9.83688 23.2353C9.4609 23.6113 8.85934 23.6113 8.48337 23.2353ZM6.01559 28.9844H9.29684V31.4658L4.88766 32.2383L2.76169 30.1123L3.53415 25.7031H6.01559V28.9844Z" fill="white"/>
</g>
<defs>
<clipPath id="clip0_37_4">
<rect width="35" height="35" fill="white"/>
</clipPath>
</defs>
</svg>

<svg width="35" height="35" xmlns="http://www.w3.org/2000/svg" fill="none" viewBox="0 0 35 35"><g clip-path="url(#a)"><path fill="#fff" d="m34.036 9.714-3.151 3.151a.821.821 0 0 1-1.162 0l-7.588-7.588a.821.821 0 0 1 0-1.162L25.286.964a3.288 3.288 0 0 1 4.642 0l4.108 4.108a3.276 3.276 0 0 1 0 4.642ZM19.428 6.822 1.477 24.773.027 33.08c-.198 1.121.78 2.092 1.9 1.9l8.306-1.456 17.951-17.95a.821.821 0 0 0 0-1.163l-7.587-7.588a.83.83 0 0 0-1.17 0ZM8.483 23.235a.953.953 0 0 1 0-1.353l10.528-10.528a.953.953 0 0 1 1.353 0 .953.953 0 0 1 0 1.354L9.837 23.235a.953.953 0 0 1-1.354 0Zm-2.467 5.75h3.28v2.48l-4.408.773-2.126-2.126.772-4.409h2.482v3.281Z"/></g><defs><clipPath id="a"><path fill="#fff" d="M0 0h35v35H0z"/></clipPath></defs></svg>
